X:1
T:Bourree
R:bourree a trois temps
A:France
F:http://simonwascher.info
Z:abc transcription Simon Wascher
M:3/8
L:1/16
K:C minor
defdef | gfedc2 | defdef | g6 |
defdef | gfedc2 | defdef | g6 :|
|:\
defG=A=B | c2dedc | G=A=BGAB | c2d4 |
defG=A=B | c2dedc | =B2=ABAB | c6 :|
